X:1
T:Winterreise, D.911
T:Die Post
T:Winterreise, D.911 
T:13. Die Post
T:Zweite Abteilung
T:Franz Schubert
T:Wilhelm Müller
T:OpenScore (CC0)
T:OpenScore (CC0)
T:OpenScore (CC0)
T:OpenScore (CC0)
T:OpenScore (CC0)
C:Franz Schubert
Z:Wilhelm Müller
Z:OpenScore (CC0)
%%score 1 { ( 2 5 ) | ( 3 4 ) }
L:1/8
M:6/8
K:Eb
V:1 treble nm="Singstimme\nVoice"
V:2 treble nm="Pianoforte"
V:5 treble 
V:3 bass 
V:4 bass 
V:1
"^Etwas geschwind" z6 | z6 | z6 | z6 | z6 | z6 | z6 | z6 | z2 z z B B | B2 B G2 G | B2 B G2 z | %11
w: ||||||||Von der|Stra- sse her ein|Post- horn klingt.|
 z2 z z2 G | A2 E E A c | e2 c A2 A | f6- | f3 z2 z | z6 | z2 z z2 e | e2 B G E G | c2 B B3 | %20
w: Was|hat es, dass es so|hoch auf- springt, mein|Herz?|_||was|hat es, dass es so|hoch auf- springt,|
 z2 z (_d2 c) | c6- | (c2 B) (c2 =d) | e6- | e2 z z2 z |"^1" z6 |!p! z2 z z2 _G | _G3 z2 G | %28
w: mein _|Herz,|_ _ mein _|Herz?|_||Die|Post bringt|
 ^F2 F FA B | A3 z2 A | A3- A__B A | A2 A A_d _c | B3 z2 _d | e3- e2 =c | _d3- d2 z | z6 | %36
w: kei- nen Brief _ für|dich Was|drängst _ _ du|denn so wun- * der-|lich, mein|Herz, _ mein|Herz? _||
 z2 z!mf! z2 B | B2 _c B2 c | B2 e B2 e |{d} f3- fe d | (e3 B2) B | B2 =c B2 c | B2 e B2 e | (f6 | %44
w: Die|Post bringt kei- nen|Brief für dich, mein|Herz, _ _ mein|Herz, _ was|drängst du denn so|wun- der- lich, mein|Herz,|
 a3-) a2 d | e3- e3 | z6 | z6 | z6 | z6 | z6 | z6 | z6 | z2 z z2 B | B2 B G2 G | B2 B G2 z | %56
w: _ _ mein|Herz? _||||||||Nun|ja, die Post kommt|aus der Stadt,|
 z2 z z2 G | A2 E EA c | e2 c A2 A | f6- | f3 z2 z | z6 | z2 z z2 e | e2 B GE G | c2 B B3 | %65
w: wo|ich ein lie \- bes|Lieb- chen hatt', mein|Herz,|||wo|ich ein lie \- bes|Lieb- chen hatt',|
 z2 z (_d2 c) | c6- | (c2 B) (c2 =d) | e6- | e2 z z2 z |"^1" z6 | z2 z!p! z2 _G | _G4- GG | %73
w: mein _|Herz,|* mein _ _|Herz?|_||Willst|wohl * ein-|
 _G2 G GA B | A2 z z2 A | A3- A__B A | A2 A A_d _c | B2 z z2 _d | e3- e z =c | _d3- d3 | z6 | %81
w: mal hin- ü \- ber|seh'n, und|fra- * * gen,|wie es dort * mag|geh'n, mein|Herz, _ mein|Herz? _||
 z2 z!mp! z2 B | B2 _c B2 c | B2 e B2 e | f3- fe d | (e3 B) z B | B2 =c B2 c | B2 e B2 e | (f6 | %89
w: willst|wohl ein- mal hin-|ü- ber seh'n, mein|Herz, _ _ mein|Herz, * und|fra\- gen, wie es|dort mag geh'n, mein|Herz,|
 a3-) a2 d | e6- | e2 z z2 z | z6 | z6 |] %94
w: _ _ mein|Herz?|_|||
V:2
!p! z6 | z6 | G>BB B>ee | (BGB eBG) | B>ee e>gg | (geg bge) | B>BB e>ee | B>BB e>ee | %8
 [B,DF]>[B,DF][B,DF] [B,EG]>[B,EG][B,EG] | [B,DF]>[B,DF][B,DF] [B,EG]>[B,EG][B,EG] | %10
 [B,DF]>[B,DF][B,DF] [B,EG]>[B,EG][B,EG] | [B,DF]>[B,DF][B,DF] [B,_DEG]>[B,DEG][B,DEG] | %12
 [CE_GA]>[CEGA][CEGA]"_cresc." [CEGA]>[CEGA][CEGA] | %13
 [CE_GA]>[CEGA][CEGA] [CEGA]>[CEGA]!<(![CEGA]!<)! | %14
!f!!>(! [A,_DF]>[A,DF][A,DF] [A,DF]>[A,DF][A,DF]!>)! | [A,_DF]>[A,DF][A,DF] [A,DF]>[A,DF][A,DF] | %16
!p! [=A,EF]>[A,EF][A,EF] [A,EF]>[A,EF][A,EF] | %17
"_decresc.""_dim." [=A,E_G]>[A,EG][A,EG] [A,EG]>[A,EG][A,EG] | %18
!pp! [B,E=G]>[B,EG][B,EG] [B,EG]>[B,EG][B,EG] | [B,EG]>[B,EG][B,EG] [B,EG]>[B,EG][B,EG] | %20
 [B,EG]>[B,EG][B,EG] [=EG]>[EG]!<(![EG]!<)! |!>(! [FA]>!>)![FA][FA] [_EG]>[EG][EG] | %22
 [DF]>[DF][DF] [DFB]>[DFB][DFB] | [B,EG]>[B,EG][B,EG] B,>B,B, | [B,EG]>[B,EG][B,EG] B,>B,B, | %25
"_1" z6 | [B,E_G]2 [B,EG] [B,EG]2 [B,EG] | [B,E_G]2 [B,EG] [B,EG]2 [B,EG] | %28
 [B,E_G]2 [B,EG] [B,EG]2 [EG] | [A,F]2 [A,_DF] [A,DF]2 [A,DF] | [A,_DF]2 [A,DF] [A,C_G]2 [A,CG] | %31
 [A,_D_G]2 [A,DG] [A,DF]2 [A,DF] | [B,_D_G]2 [B,DG] [B,DG]2!<(! [B,DG]!<)! | %33
!>(! [C_G=A]2!>)! [CGA] [CGA]2 [CGA] | [_D_GB]2 [DGB] [DGB]2 [Bd] | e3- (e_gc) | _d3 d2 =d | %37
 [FBd]2 [FBd] [FBd]2 [FB^c] |"_cresc." [EBe]2 [EBe] [EBe]2 [EBe] | %39
!>(! [FBd]2!>)! [FBd] [FBd]2 [FBd] | [EBe]2 [EBe] [EBe]2 [EBe] |!p! [FBd]2 [FBd] [FBd]2 [FBd] | %42
 [EBe]2 [EBe] [EBe]2!<(! [EBe]!<)! |!>(! [EF=Ac]2!>)! [EFAc] [EFAc]2 [EFAc] | %44
 [DF_AB]2 [DFAB] [DFAB]2 [DFAB] |!p! [EG]2 z z2 z | z6 | G>BB B>ee | (BGB eBG) | B>ee e>gg | %50
 (geg bge) | B>BB e>ee | B>BB e>ee | [B,DF]>[B,DF][B,DF] [B,EG]>[B,EG][B,EG] | %54
 [B,DF]>[B,DF][B,DF] [B,EG]>[B,EG][B,EG] | [B,DF]>[B,DF][B,DF] [B,EG]>[B,EG][B,EG] | %56
 [B,DF]>[B,DF][B,DF] [B,_DEG]>[B,DEG][B,DEG] | [CE_GA]>[CEGA][CEGA]"_cresc." [CEGA]>[CEGA][CEGA] | %58
 [CE_GA]>[CEGA][CEGA] [CEGA]>[CEGA]!<(![CEGA]!<)! | %59
!>(! [A,_DF]>!>)![A,DF][A,DF] [A,DF]>[A,DF][A,DF] | [A,_DF]>[A,DF][A,DF] [A,DF]>[A,DF][A,DF] | %61
!p! [=A,EF]>[A,EF][A,EF] [A,EF]>[A,EF][A,EF] | %62
"_decresc.""_dim." [=A,E_G]>[A,EG][A,EG] [A,EG]>[A,EG][A,EG] | %63
 [B,E=G]>[B,EG][B,EG] [B,EG]>[B,EG][B,EG] | [B,EG]>[B,EG][B,EG] [B,EG]>[B,EG][B,EG] | %65
 [B,EG]>[B,EG][B,EG] [=EG]>[EG]!<(![EG]!<)! |!>(! [FA]>!>)![FA][FA] [_EG]>[EG][EG] | %67
 [DF]>[DF][DF] [DFB]>[DFB][DFB] | [B,EG]>[B,EG][B,EG] B,>B,B, | [B,EG]>[B,EG][B,EG] B,>B,B, | %70
"_1" z6 | [B,E_G]2 [B,EG] [B,EG]2 [B,EG] | [B,E_G]2 [B,EG] [B,EG]2 [B,EG] | %73
 [B,E_G]2 [B,EG] [B,EG]2 [EG] | [A,F]2 [A,_DF] [A,DF]2 [A,DF] | [A,_DF]2 [A,DF] [A,C_G]2 [A,CG] | %76
 [A,_D_G]2 [A,DG] [A,DF]2 [A,DF] | [B,_D_G]2 [B,DG] [B,DG]2!<(! [B,DG]!<)! | %78
!>(! [C_G=A]2!>)! [CGA] [CGA]2 [CGA] | [B,_D_G]2 [B,DG] [B,DG]2 [B,DG] |!pp! e3- (e_gc) | %81
 _d3 d2!p! =d | [FBd]2 [FBd] [FBd]2 [FBd] | [EBe]2 [EBe] [EBe]2!<(! [EBe]!<)! | %84
!>(! [FBd]2!>)! [FBd] [FBd]2 [FBd] | [EBe]2 [EBe] [EBe]2 [EBe] | [FBd]2 [FBd] [FBd]2 [FBd] | %87
 [EBe]2 [EBe] [EBe]2!<(! [EBe]!<)! | [EF=Ac]2 [EFAc] [EFAc]2 [EFAc] | %89
 [DF_AB]2 [DFAB] [DFAB]2 [DFAB] | [B,EG]>[B,EG][B,EG] B,>B,B, | [B,EG]>[B,EG][B,EG] B,>B,B, | %92
 z2 z!p! [GB]2 z | [Ge]2 z z2 z |] %94
V:3
 .E.B,.G, .E.B,.G, | EB,G, EB,G, | EB,G, EB,G, | EB,G, EB,G, | EB,G, EB,G, | EB,G, EB,G, | %6
 DB,A, G,B,E | DB,A, G,B,E | B,,>B,,B,, E,>E,E, | B,,>B,,B,, E,>E,E, | B,,>B,,B,, E,>E,E, | %11
 B,,>B,,B,, E,>E,E, | A,,>A,,A,, A,,>A,,A,, | A,,>A,,A,, A,,>A,,A,, | _D,,>_D,D, D,>D,D, | %15
 _D,>D,D, D,>D,D, | C,>C,C, C,>C,C, | _C,>C,C, C,>C,C, | B,,>B,,B,, B,,>B,,B,, | %19
 B,,>B,,B,, B,,>B,,B,, | B,,>B,,B,, [B,,B,]>[B,,B,][B,,B,] | %21
 [B,,A,]>[B,,A,][B,,A,] [B,,A,]>[B,,A,][B,,A,] | [B,,A,]>[B,,A,][B,,A,] [B,,A,]>[B,,A,][B,,A,] | %23
 [E,G,]>[E,G,][E,G,] z2 z | [E,G,]>[E,G,][E,G,] z2 z | z6 |!pp! E,2 E, E,2 E, | E,2 E, E,2 E, | %28
 E,2 E, E,2 C, | _D,2 D, D,2 D, | _D,2 D, __E,2 E, | _D,2 D, D,2 D, | _G,2 G, G,2 G, | %33
 _G,2 G, G,2 G, | _G,2 G, G,2 [G,D] |!pp! [_G,C]2 [G,C] [G,C]2 [G,C] | %36
 [_G,_D]2 [G,D] [G,D]2!p! [B,,A,B,] | [B,,A,B,]2 [B,,A,B,] [B,,A,B,]2 [B,,A,B,] | %38
 [B,,=G,B,]2 [B,,G,B,] [B,,G,B,]2 [B,,G,B,] | [B,,A,B,]2 [B,,A,B,] [B,,A,B,]2 [B,,A,B,] | %40
 [B,,G,B,]2 [B,,G,B,] [B,,G,B,]2 [B,,G,B,] | [B,,A,B,]2 [B,,A,B,] [B,,A,B,]2 [B,,A,B,] | %42
 [B,,G,B,]2 [B,,G,B,] [B,,G,B,]2 [B,,G,B,] |!f! [B,,F,]2 [B,,F,] [B,,F,]2 [B,,F,] | %44
 [B,,F,A,B,]2 [B,,F,A,B,] [B,,F,A,B,]2 [B,,F,A,B,] | [G,B,]2 B, .E.B,.G, | .E.B,.G, .E.B,.G, | %47
 EB,G, EB,G, | EB,G, EB,G, | EB,G, EB,G, | EB,G, EB,G, | DB,A, G,B,E | DB,A, G,B,E | %53
 B,,>B,,B,, E,>E,E, | B,,>B,,B,, E,>E,E, | B,,>B,,B,, E,>E,E, | B,,>B,,B,, E,>E,E, | %57
 A,,>A,,A,, A,,>A,,A,, | A,,>A,,A,, A,,>A,,A,, |!f! _D,,>_D,D, D,>D,D, | _D,>D,D, D,>D,D, | %61
 C,>C,C, C,>C,C, | _C,>C,C, C,>C,C, |!pp! B,,>B,,B,, B,,>B,,B,, | B,,>B,,B,, B,,>B,,B,, | %65
 B,,>B,,B,, [B,,B,]>[B,,B,][B,,B,] | [B,,A,]>[B,,A,][B,,A,] [B,,A,]>[B,,A,][B,,A,] | %67
 [B,,A,]>[B,,A,][B,,A,] [B,,A,]>[B,,A,][B,,A,] | [E,G,]>[E,G,][E,G,] z2 z | %69
 [E,G,]>[E,G,][E,G,] z2 z | z6 |!pp! E,2 E, E,2 E, | E,2 E, E,2 E, | E,2 E, E,2 C, | %74
 _D,2 D, D,2 D, | _D,2 D, __E,2 E, | _D,2 D, D,2 D, | _G,2 G, G,2 G, | _G,2 G, G,2 G, | %79
 _G,2 G, G,2 G, | [_G,C]2 [G,C] [G,C]2 [G,C] | [_G,_D]2 [G,D] [G,D]2 [B,,A,B,] | %82
 [B,,A,B,]2 [B,,A,B,] [B,,A,B,]2 [B,,A,B,] | [B,,G,B,]2 [B,,G,B,] [B,,G,B,]2 [B,,G,B,] | %84
 [B,,A,B,]2 [B,,A,B,] [B,,A,B,]2 [B,,A,B,] | [B,,G,B,]2 [B,,G,B,] [B,,G,B,]2 [B,,G,B,] | %86
 [B,,A,B,]2 [B,,A,B,] [B,,A,B,]2 [B,,A,B,] | [B,,G,B,]2 [B,,G,B,] [B,,G,B,]2 [B,,G,B,] | %88
 [B,,F,]2 [B,,F,] [B,,F,]2 [B,,F,] | [B,,F,A,B,]2 [B,,F,A,B,] [B,,F,A,B,]2 [B,,F,A,B,] | %90
 [E,G,]>[E,G,][E,G,] z2 z | [E,G,]>[E,G,][E,G,] z2 z | z2 z [E,G,B,]2 z | [E,G,E]2 z z2 z |] %94
V:4
 E,2 z E,2 z | E,2 z E,2 z | E,2 z E,2 z | E,2 z E,2 z | E,2 z E,2 z | E,2 z E,2 z | E,2 z E,2 z | %7
 E,2 z E,2 z | x6 | x6 | x6 | x6 | x6 | x6 | x6 | x6 | x6 | x6 | x6 | x6 | x6 | x6 | x6 | x6 | x6 | %25
 x6 | x6 | x6 | x6 | x6 | x6 | x6 | x6 | x6 | x6 | x6 | x6 | x6 | x6 | x6 | x6 | x6 | x6 | x6 | %44
 x6 | E,2 z E,2 z | E,2 z E,2 z | E,2 z E,2 z | E,2 z E,2 z | E,2 z E,2 z | E,2 z E,2 z | %51
 E,2 z E,2 z | E,2 z E,2 z | x6 | x6 | x6 | x6 | x6 | x6 | x6 | x6 | x6 | x6 | x6 | x6 | x6 | x6 | %67
 x6 | x6 | x6 | x6 | x6 | x6 | x6 | x6 | x6 | x6 | x6 | x6 | x6 | x6 | x6 | x6 | x6 | x6 | x6 | %86
 x6 | x6 | x6 | x6 | x6 | x6 | x6 | x6 |] %94
V:5
 x6 | x6 | x6 | x6 | x6 | x6 | x6 | x6 | x6 | x6 | x6 | x6 | x6 | x6 | x6 | x6 | x6 | x6 | x6 | %19
 x6 | x6 | x6 | x6 | x6 | x6 | x6 | x6 | x6 | x6 | x6 | x6 | x6 | x6 | x6 | x6 | =A2 A A2 A | %36
 B2 B B2 [FB] | x6 | x6 | x6 | x6 | x6 | x6 | x6 | x6 | x6 | x6 | x6 | x6 | x6 | x6 | x6 | x6 | %53
 x6 | x6 | x6 | x6 | x6 | x6 | x6 | x6 | x6 | x6 | x6 | x6 | x6 | x6 | x6 | x6 | x6 | x6 | x6 | %72
 x6 | x6 | x6 | x6 | x6 | x6 | x6 | x6 | =A2 A A2 A | B2 B B2 [FB] | x6 | x6 | x6 | x6 | x6 | x6 | %88
 x6 | x6 | x6 | x6 | x6 | x6 |] %94

